X:13452
T:Polska fr J\"amtland
S:Christina Eketorp
R:Polska
O:Sweden
M:3/4
A:J\"amtland
K:D
F>A GA B<cd2|F>A GA G<B A2::c|\
d>c BA Bc |d2cB A2|
d>c BA Bc|d2f4|\
d>c BA Bc|d2B2A2|E>F (3GEG (3FDF|(3EDC D2:|
